X:1
T:Gebet
T:Franz Abt (1819-1885)
T:Heinrich Weber (1821-1900)
T:Gebet
T:CPDL - Creative Commons Attribution Non Commercial 3.0
C:Franz Abt
Z:Heinrich Weber
Z:CPDL - Creative Commons Attribution Non Commercial 3.0
%%score [ ( 1 2 ) ( 3 4 ) ]
L:1/8
Q:1/4=100
M:4/4
K:D
V:1 treble nm="Sopran\nAlt"
V:2 treble 
V:3 bass nm="Tenor\nBass"
V:4 bass 
V:1
!p!"^Fromm" d4 (c2 B2) | A4!<(! F4 | B4!<)! (A2 G2) |!>(! G4 !breath!F4!>)! | %4
w: 1.~Va- ter, *|du in|Him- mels- *|au- en,|
w: 2.~Va- ter, *|du der|Gna- den- *|quel- le,|
w: 3.~Va- ter, *|du ver-|nimm die *|Lie- der,|
!<(! (^G2 A2) (B2!<)! c2) | (c2 B2) (d2 B2) |!>(! (B2 A2) (A2 ^G2) | !breath!!fermata!A8!>)! | %8
w: hö- * re *|dei- * ner *|Kin- * der *|Fleh'n!|
w: du * bist *|e- * wig *|un- * ser *|Hort!|
w: die * dir *|sin- * gen *|Lob * und *|Dank!|
!p! d4 (c2 B2) | A4 F4 |!<(! B4 (A2!<)! G2) |!>(! G4 !breath!F4!>)! |!<(! F4 F4 | B4!<)! B4 | %14
w: Dir du *|Heil'- ger,|wir ver- *|trau- en,|ob um|uns die|
w: Wer ~~~~dich *|liebt, der|schau- et *|hel- le|durch des|Le- bens|
w: Bli- cke *|huld- voll|auf uns *|nie- der!|Einst er-|he- ben|
 =c4 (B2 A2) | A4 !breath!G4 |!mf! (e2 d2) ^c4 | d4 (c2 B2) | %18
w: Stür- me *|grau- en:|Nim- * mer|wer- den *|
w: wil- de *|Wel- le|bis * zum|si- chern *|
w: wir dich *|wie- der|froh * in|dei- nem *|
[Q:1/4=96]"^rit."!>(! (A2 F2) (G2 A2) | !breath!!fermata!F8!>)! | %20
w: wir * ver- *|geh'n,|
w: Ru- * he- *|ort,|
w: Hei- * lig- *|tum,|
[Q:1/4=100]!p!!<(! (A2 B2) (c2 d2)!<)! |!f!!>(! e4 f4!>)! |!f! e4!>(! c4 | !fermata!d8!>)! |] %24
w: nim- * mer *|wer- den|wir ver-|geh'n.|
w: bis * zum *|si- chern|Ru- he-|ort.|
w: froh * in *|dei- nem|Hei- lig-|tum.|
V:2
 F4 G4 | D4 D4 | D4 (C2 E2) | E4 D4 | E4 E4 | F4 F4 | E4 D4 | C8 | F4 G4 | D4 D4 | D4 (C2 E2) | %11
 E4 D4 | D4 E4 | ^D4 D4 | F4 F4 | F4 E4 | G4 G4 | F4 (A2 G2) | (F2 D2) (E2 C2) | D8 | D4 (G2 F2) | %21
 G4 F4 | G4 (E2 G2) | F8 |] %24
V:3
!p! A,4 A,4 | A,4!<(! A,4 | (G,2 F,2)!<)! (E,2 A,2) |!>(! A,4 !breath!A,4!>)! | %4
!<(! (B,2 A,2) (^G,2!<)! A,2) | A,4 B,4 |!>(! C4 B,4 | !breath!!fermata!A,8!>)! |!p! A,4 A,4 | %9
 A,4 A,4 |!<(! (G,2 F,2) (E,2!<)! A,2) |!>(! A,4 !breath!A,4!>)! |!<(! A,4 ^A,4 | B,4!<)! B,4 | %14
 A,4 (B,2 =C2) | =C4 !breath!B,4 |!mf! (B,2 E2) E4 | D4 D4 |!>(! (D2 A,2) A,4 | %19
 !breath!!fermata!A,8!>)! |!p!!<(! (A,2 G,2) A,4!<)! |!f!!>(! A,4 A,4!>)! |!f! B,4!>(! A,4 | %23
 !fermata!A,8!>)! |] %24
V:4
 D,4 E,4 | F,4 D,4 | G,,4 A,,4 | D,4 D,4 | (D,2 C,2) (B,,2 A,,2) | D,4 (B,,2 D,2) | E,4 E,4 | %7
 A,,8 | D,4 E,4 | F,4 D,4 | G,,4 A,,4 | D,4 D,4 | D,4 C,4 | B,,4 B,,4 | ^D,4 D,4 | E,4 E,4 | %16
 E,4 (A,2 ^A,2) | B,4 G,4 | A,4 A,,4 | D,8 | (F,2 G,2) (E,2 D,2) | C,4 D,4 | G,,4 A,,4 | D,8 |] %24

